lib/svgs/t-o.svg

<?xml version="1.0" encoding="UTF-8"?>
<svg width="16px" height="16px" viewBox="0 0 16 16" version="1.1" xmlns="http://www.w3.org/2000/svg" xmlns:xlink="http://www.w3.org/1999/xlink">
    <!-- Generator: sketchtool 51.3 (57544) - http://www.bohemiancoding.com/sketch -->
    <title>t-o</title>
    <desc>Created with sketchtool.</desc>
    <defs></defs>
    <g id="Icons" stroke="none" stroke-width="1" fill="none" fill-rule="evenodd">
        <g id="Deprecated" transform="translate(-364.000000, -359.000000)" fill="#000000" fill-rule="nonzero">
            <g id="t-o" transform="translate(364.000000, 359.000000)">
                <path d="M5.08000002,1.9818015 L5.08000002,10.3381459 C5.08000002,11.5417157 5.23069854,12.3119526 5.58501552,12.8756514 C6.39860684,14.1837786 8.19283446,14.5555809 10.7899394,13.8507715 L10.4872611,12.7409508 C8.04880694,13.3382817 6.83706294,12.559203 6.83706294,10.2970756 L6.83706294,6.76502819 C6.83706294,6.43365734 7.10569209,6.16502819 7.43706294,6.16502819 L10.4923213,6.16502819 L10.4923213,4.81866845 L7.43706294,4.81866845 C7.10569209,4.81866845 6.83706294,4.5500393 6.83706294,4.21866845 L6.83706294,1.84758141 L5.08000002,1.9818015 Z M8.03706294,10.2970756 C8.03706294,11.8139493 8.58413436,12.0913017 10.7303984,11.4282283 C11.0545053,11.3280977 11.397108,11.5163545 11.4863631,11.8436233 L12.1024179,14.1024908 C12.1871742,14.4132638 12.0114097,14.7355094 11.7042384,14.8325109 C8.34545442,15.8931795 5.78646931,15.4716996 4.56753771,13.5118359 C4.07059172,12.72124 3.88000002,11.7471047 3.88000002,10.3381459 L3.88000002,1.4258868 C3.88000002,1.11224248 4.12156662,0.851519095 4.43429983,0.827629753 L7.39136275,0.601743002 C7.73972738,0.575131816 8.03706294,0.850620502 8.03706294,1.20000005 L8.03706294,3.61866845 L11.0923213,3.61866845 C11.4236921,3.61866845 11.6923213,3.8872976 11.6923213,4.21866845 L11.6923213,6.76502819 C11.6923213,7.09639904 11.4236921,7.36502819 11.0923213,7.36502819 L8.03706294,7.36502819 L8.03706294,10.2970756 Z"></path>
            </g>
        </g>
    </g>
</svg>

<svg xmlns="http://www.w3.org/2000/svg" viewBox="0 0 16 16">
    <path d="M5.08 1.982v8.356c0 1.204.15 1.974.505 2.538.814 1.308 2.608 1.68 5.205.975l-.303-1.11c-2.438.597-3.65-.182-3.65-2.444V6.765a.6.6 0 0 1 .6-.6h3.055V4.819H7.437a.6.6 0 0 1-.6-.6V1.848l-1.757.134zm2.957 8.315c0 1.517.547 1.794 2.693 1.131a.6.6 0 0 1 .756.416l.616 2.258a.6.6 0 0 1-.398.73c-3.359 1.061-5.918.64-7.136-1.32-.497-.79-.688-1.765-.688-3.174V1.426a.6.6 0 0 1 .554-.598L7.391.602a.6.6 0 0 1 .646.598v2.419h3.055a.6.6 0 0 1 .6.6v2.546a.6.6 0 0 1-.6.6H8.037v2.932z"/>
</svg>
